static/img/common/ico-wireless-info.svg

<svg width="11" height="11" viewBox="0 0 11 11" fill="none" xmlns="http://www.w3.org/2000/svg">
<g clip-path="url(#clip0_71_57)">
<path d="M5.5 11C8.53757 11 11 8.53757 11 5.5C11 2.46243 8.53757 0 5.5 0C2.46243 0 0 2.46243 0 5.5C0 8.53757 2.46243 11 5.5 11Z" fill="#77BD48"/>
<path d="M5.89816 2.30554H5.08334C4.94016 2.30554 4.82408 2.42162 4.82408 2.5648V3.2685C4.82408 3.41169 4.94016 3.52776 5.08334 3.52776H5.89816C6.04134 3.52776 6.15741 3.41169 6.15741 3.2685V2.5648C6.15741 2.42162 6.04134 2.30554 5.89816 2.30554Z" fill="white"/>
<path d="M4.85186 4.19446V8.03705C4.85186 8.39816 5.14816 8.69446 5.50927 8.69446C5.87038 8.69446 6.16668 8.39816 6.16668 8.03705V4.19446H4.84261H4.85186Z" fill="white"/>
</g>
<defs>
<clipPath id="clip0_71_57">
<rect width="11" height="11" fill="white"/>
</clipPath>
</defs>
</svg>

<svg xmlns="http://www.w3.org/2000/svg" width="11" height="11" fill="none" viewBox="0 0 11 11"><g clip-path="url(#a)"><path fill="#77bd48" d="M5.5 11a5.5 5.5 0 1 0 0-11 5.5 5.5 0 0 0 0 11"/><path fill="#fff" d="M5.898 2.306h-.815a.26.26 0 0 0-.259.259v.704c0 .143.116.259.26.259h.814a.26.26 0 0 0 .26-.26v-.703a.26.26 0 0 0-.26-.26M4.852 4.194v3.843a.66.66 0 0 0 .657.657.66.66 0 0 0 .658-.657V4.194H4.843z"/></g><defs><clipPath id="a"><path fill="#fff" d="M0 0h11v11H0z"/></clipPath></defs></svg>
